la-capitaine/actions/scalable/view-right-new.svg

<svg xmlns="http://www.w3.org/2000/svg" viewBox="0 0 22 22">
 <defs id="defs3051">
   <style type="text/css" id="current-color-scheme">
     .ColorScheme-Text {
       color:#4d4d4d;
     }
     </style>
 </defs>
   <path
      style="fill:currentColor;fill-opacity:1;stroke:none"
      d="m1.70928 3c-.39345 0-.70928.3368-.70928.75391v14.49218c0 .41711.31583.75391.70928.75391h18.58144c.39346 0 .70928-.3368.70928-.75391v-14.49218c0-.41711-.31582-.75391-.70928-.75391zm.88983 1.34766h5.99116c.23889 0 .43111.20378.43111.45703v12.39062c0 .25326-.19222.45703-.43111.45703h-5.99116c-.23888 0-.43109-.20377-.43109-.45703v-12.39062c0-.25325.19221-.45703.43109-.45703zm11.66176 3.31836h1.40383c-.002.71306 0 2.58984 0 2.58984h2.27524v1.48828h-2.27524s-.00081 1.8736-.002 2.58984h-1.40383c.00095-.71624.002-2.58984.002-2.58984s-1.52372-.001-2.27708 0v-1.48633c.75336-.002 2.27708-.002 2.27708-.002s-.00094-1.87683 0-2.58984z"
      class="ColorScheme-Text" />
</svg>

<?xml version="1.0" encoding="UTF-8" standalone="no"?>
<svg
   xmlns:dc="http://purl.org/dc/elements/1.1/"
   xmlns:cc="http://creativecommons.org/ns#"
   xmlns:rdf="http://www.w3.org/1999/02/22-rdf-syntax-ns#"
   xmlns:svg="http://www.w3.org/2000/svg"
   xmlns="http://www.w3.org/2000/svg"
   xmlns:sodipodi="http://sodipodi.sourceforge.net/DTD/sodipodi-0.dtd"
   xmlns:inkscape="http://www.inkscape.org/namespaces/inkscape"
   viewBox="0 0 22 22"
   version="1.1"
   id="svg6"
   sodipodi:docname="view-right-close.svg"
   inkscape:version="0.92.2 (5c3e80d, 2017-08-06)">
  <metadata
     id="metadata10">
    <rdf:RDF>
      <cc:Work
         rdf:about="">
        <dc:format>image/svg+xml</dc:format>
        <dc:type
           rdf:resource="http://purl.org/dc/dcmitype/StillImage" />
      </cc:Work>
    </rdf:RDF>
  </metadata>
  <sodipodi:namedview
     pagecolor="#ffffff"
     bordercolor="#666666"
     borderopacity="1"
     objecttolerance="10"
     gridtolerance="10"
     guidetolerance="10"
     inkscape:pageopacity="0"
     inkscape:pageshadow="2"
     inkscape:window-width="1920"
     inkscape:window-height="1034"
     id="namedview8"
     showgrid="false"
     inkscape:zoom="30.341309"
     inkscape:cx="11"
     inkscape:cy="11"
     inkscape:window-x="0"
     inkscape:window-y="0"
     inkscape:window-maximized="1"
     inkscape:current-layer="svg6" />
  <defs
     id="defs3051">
    <style
       type="text/css"
       id="current-color-scheme">
     .ColorScheme-Text {
       color:#4d4d4d;
     }
     </style>
  </defs>
  <path
     style="color:#4d4d4d;fill:currentColor;fill-opacity:1;stroke:none"
     d="M 1.70928,3 C 1.31583,3 1,3.3368 1,3.75391 V 18.24609 C 1,18.6632 1.31583,19 1.70928,19 H 20.29072 C 20.68418,19 21,18.6632 21,18.24609 V 3.75391 C 21,3.3368 20.68418,3 20.29072,3 Z m 0.88983,1.34766 h 5.99116 c 0.23889,0 0.43111,0.20378 0.43111,0.45703 v 12.39062 c 0,0.25326 -0.19222,0.45703 -0.43111,0.45703 H 2.59911 c -0.23888,0 -0.43109,-0.20377 -0.43109,-0.45703 V 4.80469 c 0,-0.25325 0.19221,-0.45703 0.43109,-0.45703 z m 11.66176,5.90815 1.40383,5e-5 c -0.002,0.71306 0,0 0,0 h 2.27524 v 1.48828 H 15.6647 c 0,0 0.0012,-0.71624 0,0 h -1.40383 c 9.5e-4,-0.71624 0,0 0,0 0,0 -1.52372,-10e-4 -2.27708,0 v -1.48633 c 0.75336,-0.002 2.27708,-0.002 2.27708,-0.002 0,0 -9.4e-4,0.71301 0,0 z"
     class="ColorScheme-Text"
     id="path4"
     inkscape:connector-curvature="0"
     sodipodi:nodetypes="sssssssssssssssssscccccccccccccc" />
</svg>
